X:371
T:B371-  Phillida Flouts Me
S:(1st/3)
Q:1/4=120
L:1/4
M:6/4
K:E phrygian
G3GA/B/c|GGGG2E|G3GA/B/c|GGGG2E|\
e3/2d/cB3/2A/G|ceee2d|e3/2d/cd3/2B/G|ceeg3|\
":s:"g3/2f/ed3/2c/B|c3/2d/ e/f/g3/2f/e|de/f/gd3/2c/B|\
cGGG2E|]

